icons/job/healer/SGE.svg

<svg viewBox="0 0 12.7 12.7" xmlns="http://www.w3.org/2000/svg">
  <g>
    <path d="m 6.3500018,0.64034034 c -0.1260315,0 -0.2772751,0.0642635 -0.4000195,0.39287956 -0.1746674,0.467631 -0.9597472,1.1898766 -1.3670565,1.3583505 -0.3776987,0.1562257 -0.4043339,0.4502782 -0.09187,0.6820426 0.251736,0.1867198 0.7801389,0.5916724 1.0005311,0.9240275 0.3608245,0.5441412 0.3702004,0.7055432 0.4201159,2.1487504 0.01967,0.5687635 0.075709,1.4695897 0.1153171,1.6245702 0.069567,0.2721692 0.2815475,0.2719568 0.3229823,0.2719576 0.041441,-8e-7 0.2534165,2.116e-4 0.322983,-0.2719576 C 6.7126,7.6159806 6.7686265,6.7151544 6.788302,6.1463909 6.8382144,4.7031837 6.8565247,4.5417817 7.2173522,3.9976405 7.4377444,3.6652854 7.957213,3.2603328 8.208949,3.073613 8.5214125,2.8418486 8.4947773,2.5477963 8.1170785,2.3915704 7.70977,2.2230965 6.9246895,1.5008509 6.750022,1.0332199 6.6272776,0.70460335 6.476034,0.64034034 6.3500018,0.64034034 Z M 2.6412,3.4946921 C 2.620086,3.4941295 2.600844,3.4967121 2.584733,3.5013821 2.4974639,3.5267303 2.3901881,3.6442895 2.3651067,3.8646302 2.3137658,4.3149722 1.9476431,4.93252 1.5789399,5.2263261 1.2886482,5.4576477 1.2601636,5.6383627 1.6832517,5.7645043 2.2070279,5.9336634 2.9120209,6.3860192 3.072797,6.8504199 3.7486792,8.8026955 3.8445287,9.2109977 4.1130412,9.137916 4.3829477,9.0644529 4.2464327,8.6332538 3.8723594,6.5908898 3.7976176,6.1827915 4.1596918,5.3944841 4.522154,4.9806564 4.820342,4.65539 4.7030807,4.5150006 4.3350665,4.4654203 3.8676431,4.4024475 3.2359397,4.0602978 2.9603544,3.7002131 2.8626944,3.553215 2.7326839,3.4971304 2.6412,3.4946921 Z m 7.417604,0 C 9.9673224,3.4971366 9.8373096,3.5532158 9.7396497,3.7002131 9.4640643,4.0602978 8.8323612,4.4024475 8.3649378,4.4654203 7.9969236,4.5150004 7.8796624,4.65539 8.1778481,4.9806566 8.5403103,5.3944843 8.9023844,6.1827918 8.8276411,6.5908896 8.4535678,8.6332523 8.3170528,9.0644514 8.5869586,9.1379152 8.8554718,9.2109887 8.9513206,8.8026947 9.6272032,6.8504197 9.7879785,6.386019 10.492972,5.9336632 11.016748,5.7645041 11.439836,5.6383626 11.411351,5.4576476 11.12106,5.2263259 10.752356,4.9325198 10.386238,4.314972 10.334897,3.8646299 10.309817,3.6442894 10.202536,3.5267296 10.115266,3.5013836 c -0.0161,-0.00467 -0.03534,-0.00726 -0.05647,-0.00669 z M 5.6408753,7.4473857 C 5.5061072,7.447575 5.3177525,7.5772194 4.9772062,7.8321393 4.6653454,8.065587 4.7545583,8.1470319 5.2475536,8.6360619 c 0.5600508,0.555546 0.8029746,0.6979598 0.804827,1.6771471 9.931e-4,0.55184 0.00784,1.329084 0.088041,1.563392 0.058689,0.171448 0.1538385,0.183058 0.2095801,0.183058 0.055741,0 0.1508937,-0.0116 0.2095809,-0.183058 0.080168,-0.234308 0.087025,-1.011552 0.088041,-1.563392 C 6.6495334,9.3340217 6.8923999,9.1916079 7.4524508,8.6360619 7.9454461,8.1470319 8.0346612,8.065587 7.7228012,7.8321393 7.3822541,7.5772194 7.1938971,7.447575 7.059129,7.4473857 6.9978653,7.4472996 6.9476832,7.4737513 6.8993131,7.5276826 6.7837416,7.6565162 6.746318,7.7299441 6.8911777,7.8660742 7.1021565,8.0643809 7.0985724,8.1391265 6.8217938,8.4075985 6.6000519,8.6226839 6.4805883,8.7261166 6.3499995,8.7177925 6.2194114,8.7261341 6.0999479,8.6226839 5.8782059,8.4075985 5.6014274,8.1391265 5.5978455,8.0643809 5.808822,7.8660742 5.9536818,7.7299441 5.9162452,7.6565162 5.8006866,7.5276826 5.7523173,7.4737537 5.7021276,7.4472996 5.6408707,7.4473857 Z" />
  </g>
</svg>

<svg viewBox="0 0 12.7 12.7" xmlns="http://www.w3.org/2000/svg"><path d="M6.35.64c-.126 0-.277.065-.4.393-.175.468-.96 1.19-1.367 1.359-.378.156-.404.45-.092.682.252.186.78.591 1 .924.361.544.37.705.42 2.148.02.57.076 1.47.116 1.625.07.272.282.272.323.272.041 0 .253 0 .323-.272.04-.155.096-1.056.115-1.625.05-1.443.069-1.604.43-2.148.22-.333.74-.738.99-.924.313-.232.287-.526-.09-.682C7.71 2.223 6.924 1.5 6.75 1.033 6.627.705 6.476.64 6.35.64ZM2.641 3.495a.187.187 0 0 0-.056.006c-.088.026-.195.143-.22.364-.051.45-.417 1.068-.786 1.361-.29.232-.319.412.104.539.524.169 1.229.621 1.39 1.085.676 1.953.772 2.361 1.04 2.288.27-.074.133-.505-.24-2.547-.075-.408.287-1.197.65-1.61.297-.326.18-.466-.188-.516-.467-.063-1.1-.405-1.375-.765-.097-.147-.227-.203-.319-.205Zm7.418 0c-.092.002-.222.058-.32.205-.275.36-.907.702-1.374.765-.368.05-.485.19-.187.516.362.413.724 1.202.65 1.61-.374 2.042-.51 2.473-.241 2.547.268.073.364-.335 1.04-2.288.161-.464.866-.916 1.39-1.085.423-.127.394-.307.104-.539-.369-.293-.735-.911-.786-1.361-.025-.22-.132-.338-.22-.364a.186.186 0 0 0-.056-.006zM5.64 7.447c-.135 0-.323.13-.664.385-.312.234-.222.315.27.804.56.556.804.698.805 1.677.001.552.008 1.33.088 1.564.06.171.154.183.21.183.056 0 .15-.012.21-.183.08-.235.087-1.012.088-1.564.002-.979.244-1.121.804-1.677.493-.489.583-.57.27-.804-.34-.255-.528-.384-.663-.385-.061 0-.111.027-.16.08-.115.13-.153.203-.008.34.211.197.208.272-.07.54-.22.216-.34.32-.471.31-.13.01-.25-.094-.472-.31-.277-.268-.28-.343-.07-.54.146-.137.108-.21-.007-.34-.049-.053-.099-.08-.16-.08Z"/></svg>
